collateral/WEETH.svg

<svg width="42" height="42" viewBox="0 0 42 42" fill="none" xmlns="http://www.w3.org/2000/svg">
<g clip-path="url(#clip0_9229_18222)">
<circle cx="21" cy="21" r="21" fill="url(#paint0_linear_9229_18222)"/>
<path fill-rule="evenodd" clip-rule="evenodd" d="M30.9691 16.0764C30.9691 16.4878 30.9677 16.8992 30.9662 17.3104C30.9625 18.3571 30.9588 19.4034 30.9791 20.4506C30.9891 20.9876 30.7948 21.3042 30.3232 21.5611C29.1498 22.2 27.9798 22.8456 26.8097 23.4912C25.0627 24.4551 23.3153 25.4193 21.5562 26.3613C21.2407 26.5304 20.6762 26.532 20.3607 26.3613C17.3769 24.7601 14.4164 23.1142 11.4691 21.4451C11.2201 21.3042 10.976 20.8998 10.9727 20.6147C10.9295 17.6444 10.9195 14.6724 10.9511 11.7021C10.9544 11.3855 11.2101 10.9496 11.4808 10.7789C14.4679 8.9092 17.4749 7.06934 20.5018 5.26429C20.7609 5.11014 21.2772 5.12506 21.5413 5.28253C24.5201 7.0594 27.4822 8.86776 30.4212 10.7109C30.7001 10.8866 30.9293 11.359 30.9426 11.7021C30.9841 12.7734 30.978 13.8474 30.9719 14.9208C30.9697 15.3055 30.9675 15.6903 30.9675 16.0747H30.9708L30.9691 16.0764ZM12.2346 20.729C12.2792 20.7646 12.3154 20.7955 12.3467 20.8224C12.4015 20.8693 12.4415 20.9037 12.487 20.9279C13.0404 21.2299 13.5933 21.5325 14.1462 21.8351L14.1473 21.8357C16.2502 22.9866 18.3526 24.1373 20.4769 25.2475C20.7841 25.4082 21.3453 25.3204 21.6824 25.1447C23.2198 24.3442 24.7386 23.5096 26.2568 22.6753C26.7161 22.4229 27.1753 22.1705 27.635 21.9191C28.0525 21.6912 28.4687 21.46 28.9036 21.2184L28.9045 21.2179C29.1681 21.0715 29.4386 20.9212 29.7205 20.7655L20.9701 6.54556C19.6345 8.7135 18.3193 10.8494 17.0107 12.9745L17.01 12.9756C15.4164 15.5635 13.8328 18.1353 12.2346 20.729ZM29.576 11.2861C28.2401 10.4743 26.9479 9.68869 25.6749 8.91473C24.6632 8.29968 23.6636 7.69197 22.6637 7.08426C22.6438 7.10747 22.6238 7.13026 22.6039 7.15306C22.584 7.17584 22.5641 7.19863 22.5441 7.22183C23.7729 9.22081 25.0016 11.2198 26.2635 13.2751C26.9337 12.8728 27.5664 12.4926 28.2123 12.1044L29.5744 11.2861H29.576ZM12.399 11.3673L15.6335 13.2818L16.3166 12.1739C17.3159 10.553 18.2948 8.96531 19.2748 7.37764C19.2553 7.3617 19.2358 7.34598 19.2163 7.33031C19.1812 7.30198 19.1463 7.27386 19.1121 7.24504C17.8932 7.9939 16.6743 8.74224 15.4326 9.50458L15.4305 9.50585C14.4384 10.1149 13.4318 10.733 12.399 11.3673ZM29.9613 19.2986V12.1778C29.1447 12.673 28.3854 13.1329 27.6081 13.6036L26.7766 14.1072C27.4654 15.2312 28.1365 16.3248 28.8306 17.456L29.9613 19.2986ZM12.6169 18.2479L12.6175 18.2469C13.3933 16.9747 14.1085 15.8018 14.8033 14.6177C14.8946 14.4619 14.873 14.0691 14.7651 13.9978C14.0991 13.5567 13.4139 13.1441 12.6815 12.7031C12.448 12.5625 12.2096 12.4189 11.9656 12.2707V19.3168C12.1878 18.9516 12.4046 18.596 12.6169 18.2479Z" fill="#11026F"/>
<path fill-rule="evenodd" clip-rule="evenodd" d="M30.9692 27.8713C30.9709 27.573 30.9725 27.2746 30.9725 26.9763C30.9719 26.5933 30.9724 26.2105 30.9728 25.8278C30.9737 25.1388 30.9745 24.4501 30.9692 23.7607C30.9609 22.7131 30.7184 22.5755 29.7869 23.1092C29.3809 23.342 28.9748 23.5745 28.5688 23.807C26.2767 25.1196 23.9859 26.4314 21.7107 27.7719C21.1577 28.0968 20.7343 28.0735 20.1963 27.7586C17.8596 26.3928 15.5101 25.0487 13.1612 23.7051C12.8363 23.5192 12.5113 23.3333 12.1865 23.1474C11.1886 22.5772 10.9544 22.7148 10.9544 23.8899C10.9544 24.1014 10.9544 24.3129 10.9543 24.5244C10.9535 26.4285 10.9528 28.3346 11.0125 30.2366C11.0242 30.593 11.3031 31.077 11.607 31.2693C13.3517 32.3761 15.1104 33.4611 16.8694 34.5462C18.0133 35.2519 19.1573 35.9576 20.2976 36.6695C20.7592 36.9596 21.1312 36.9446 21.5845 36.6629C24.5051 34.8479 27.4308 33.0428 30.3681 31.2543C30.8264 30.9759 30.9974 30.6344 30.9824 30.109C30.9611 29.3631 30.9652 28.6172 30.9692 27.8713ZM28.3357 25.3254C25.9065 28.6752 23.479 32.0251 20.9585 35.5043C19.7205 33.8088 18.5033 32.1422 17.297 30.4904C16.0019 28.7172 14.7194 26.961 13.4368 25.2044C13.4509 25.1845 13.465 25.1642 13.4791 25.1439C13.4932 25.1236 13.5073 25.1033 13.5214 25.0834C13.5864 25.1137 13.6523 25.1423 13.7181 25.1709C13.8574 25.2314 13.9967 25.2919 14.1275 25.3685C14.5016 25.5864 14.8758 25.8041 15.2501 26.0217C16.9224 26.9943 18.5945 27.9668 20.2511 28.9636C20.7675 29.2753 21.1727 29.2719 21.6891 28.9636C23.2556 28.0275 24.8346 27.1126 26.4136 26.1976C26.9986 25.8586 27.5836 25.5196 28.168 25.1795C28.1963 25.2035 28.2241 25.228 28.2519 25.2524C28.2797 25.2769 28.3075 25.3013 28.3357 25.3254ZM13.798 29.7781C14.2029 29.5355 14.6105 29.2911 15.0441 29.0316V29.0299C15.9107 30.2242 16.7575 31.3898 17.5964 32.5445C18.1092 33.2503 18.6191 33.9521 19.1287 34.6539C19.1005 34.6854 19.0722 34.7186 19.044 34.7501C16.8556 33.4191 14.6688 32.0881 12.3243 30.661C12.8378 30.3537 13.316 30.0671 13.798 29.7781ZM23.1527 34.3838C23.1316 34.3556 23.1104 34.3274 23.0888 34.2992V34.2976C23.3436 33.9441 23.5979 33.5903 23.8522 33.2365C24.763 31.9695 25.6736 30.7026 26.6056 29.451C26.7201 29.2985 27.112 29.1775 27.2664 29.2554C27.7945 29.5238 28.3022 29.831 28.8773 30.1789C29.0906 30.308 29.3132 30.4427 29.5495 30.583C27.9443 31.5685 26.4228 32.5017 24.9236 33.4213C24.3525 33.7716 23.7846 34.1199 23.2167 34.4683C23.1951 34.4401 23.1739 34.4119 23.1527 34.3838ZM12.8022 29.284C12.5291 29.4505 12.2469 29.6225 11.949 29.804V24.7668C12.371 25.3472 12.7644 25.888 13.1513 26.4198C13.5943 27.0287 14.0287 27.6259 14.4878 28.2575C13.9249 28.5994 13.3843 28.929 12.8022 29.284ZM28.9097 29.0467C28.444 28.7648 27.9832 28.4859 27.4956 28.1912C27.8792 27.6585 28.2504 27.1433 28.6297 26.6169C29.0563 26.0248 29.4932 25.4185 29.9696 24.7568V29.688C29.6049 29.4674 29.256 29.2563 28.9097 29.0467Z" fill="#11026F"/>
<path fill-rule="evenodd" clip-rule="evenodd" d="M1.50006 20.9445C1.52663 10.2186 10.2737 1.48345 20.9702 1.50002C31.7513 1.5166 40.5316 10.3264 40.4984 21.0904C40.4652 31.7847 31.655 40.5481 20.9835 40.5C10.2272 40.452 1.47349 31.6654 1.50006 20.9445ZM2.31533 20.9379C2.28876 31.2013 10.556 39.5602 20.7809 39.6033C31.1386 39.6481 39.5818 31.367 39.625 21.1185C39.6698 10.8303 31.3777 2.44813 21.1163 2.40503C10.7885 2.36194 2.34189 10.6877 2.31533 20.9379Z" fill="#11026F"/>
</g>
<defs>
<linearGradient id="paint0_linear_9229_18222" x1="3.31551e-07" y1="27.5" x2="42" y2="17" gradientUnits="userSpaceOnUse">
<stop stop-color="#29BCFA"/>
<stop offset="0.453908" stop-color="#6E62E7"/>
<stop offset="1" stop-color="#B45AFA"/>
</linearGradient>
<clipPath id="clip0_9229_18222">
<rect width="42" height="42" fill="white"/>
</clipPath>
</defs>
</svg>

<svg width="42" height="42" fill="none" viewBox="0 0 42 42" xmlns="http://www.w3.org/2000/svg">
  <g clip-path="url(#a)">
    <circle cx="21" cy="21" r="21" fill="url(#b)"/>
    <path fill="#11026F" fill-rule="evenodd" d="M30.97 16.076q0 .618-.004 1.234c-.004 1.047-.007 2.093.013 3.14.01.538-.184.854-.656 1.111q-1.759.96-3.513 1.93a477 477 0 0 1-5.254 2.87c-.315.17-.88.171-1.195 0a446 446 0 0 1-8.892-4.916c-.249-.14-.493-.545-.496-.83a353 353 0 0 1-.022-8.913c.003-.316.26-.752.53-.923q4.48-2.806 9.02-5.515c.26-.154.776-.139 1.04.019a467 467 0 0 1 8.88 5.428c.28.176.508.648.522.991.041 1.071.035 2.145.029 3.219q-.004.578-.005 1.154h.004zM12.234 20.73l.112.093c.055.047.095.082.14.106l1.66.907a367 367 0 0 0 6.33 3.412c.307.161.868.073 1.205-.102 1.538-.8 3.057-1.635 4.575-2.47l1.378-.756c.417-.228.834-.459 1.269-.7v-.001l.817-.453-8.75-14.22-3.96 6.43h-.001zm17.341-9.443-3.901-2.371-3.011-1.83-.06.068-.06.069 3.72 6.053 1.948-1.17 1.362-.819zm-17.177.081 3.235 1.915.683-1.108 2.958-4.796-.059-.048-.104-.085-3.68 2.26h-.002zM29.961 19.3v-7.121l-2.353 1.426-.831.503c.688 1.124 1.36 2.218 2.054 3.349zm-17.344-1.051a250 250 0 0 0 2.186-3.63c.092-.155.07-.548-.038-.62a57 57 0 0 0-2.084-1.294l-.715-.432v7.046z" clip-rule="evenodd"/>
    <path fill="#11026F" fill-rule="evenodd" d="m30.97 27.871.003-.895v-1.148c0-.69.002-1.378-.004-2.067-.008-1.048-.25-1.185-1.182-.652l-1.218.698c-2.292 1.313-4.583 2.624-6.858 3.965-.553.325-.977.302-1.515-.013a868 868 0 0 0-7.035-4.054l-.974-.558c-.998-.57-1.233-.432-1.233.743v.634c0 1.904-.001 3.81.058 5.713.012.356.291.84.595 1.032a493 493 0 0 0 5.262 3.277q1.717 1.058 3.429 2.124c.461.29.833.275 1.287-.007q4.379-2.724 8.783-5.409c.458-.278.63-.62.614-1.145a70 70 0 0 1-.013-2.238m-2.634-2.546c-2.43 3.35-4.857 6.7-7.377 10.18l-3.662-5.015-3.86-5.286.084-.12.197.087c.14.06.279.12.41.198l1.122.653c1.672.972 3.345 1.945 5.001 2.942.516.311.922.308 1.438 0 1.567-.936 3.146-1.851 4.725-2.766l1.754-1.018.084.072q.042.038.084.073m-14.538 4.453 1.246-.746v-.002l2.552 3.514 1.533 2.11-.085.096c-2.188-1.33-4.375-2.662-6.72-4.089zm9.355 4.606-.064-.085v-.001l.763-1.062c.911-1.266 1.822-2.533 2.754-3.785.114-.152.506-.274.66-.196.529.269 1.036.576 1.611.924q.32.194.672.404l-4.625 2.838-1.707 1.047zm-10.35-5.1-.854.52v-5.037l2.539 3.49zm16.107-.237-1.414-.856 1.134-1.574 1.34-1.86v4.931z" clip-rule="evenodd"/>
    <path fill="#11026F" fill-rule="evenodd" d="M1.5 20.945C1.527 10.219 10.274 1.483 20.97 1.5c10.781.017 19.562 8.826 19.528 19.59-.033 10.695-8.843 19.458-19.514 19.41-10.757-.048-19.51-8.835-19.484-19.555m.815-.007C2.29 31.2 10.556 39.56 20.781 39.603c10.358.045 18.8-8.236 18.844-18.484.045-10.289-8.247-18.67-18.509-18.714-10.327-.043-18.774 8.283-18.8 18.533" clip-rule="evenodd"/>
  </g>
  <defs>
    <linearGradient id="b" x1="0" x2="42" y1="27.5" y2="17" gradientUnits="userSpaceOnUse">
      <stop stop-color="#29BCFA"/>
      <stop offset=".454" stop-color="#6E62E7"/>
      <stop offset="1" stop-color="#B45AFA"/>
    </linearGradient>
    <clipPath id="a">
      <path fill="#fff" d="M0 0h42v42H0z"/>
    </clipPath>
  </defs>
</svg>
